!!! OTL: Chuan/, Cong/,Yuen^,Fan-,Lai/ (Boat from Far away)
!!! YEC: COpyright 2001, Chia-wei Lee
!! For Voice Only
**kern	**silbe
*clefG2	*LXinhua
*B:	*ping-ying
*M3/4	*
=8	=8
4dd#	Chuan/
2dd#	Chong/
=9	=9
4b	Yuen^
2dd#	Fan-
=10	=10
4b	Lai/
[2cc#	Lo
=11	=11
2.cc#]	|
=12	=12
4g#	Hua\
2cc#	Kai-
=13	=13
4d#	Yi\
2f#	Gian-
=14	=14
4b	Lang\
[2g#	Ai\
=15	=15
2.g#]	|
=16	=16
2r	.
=17	=17
4g#	Chuan/
2b	Zhong-
=18	=18
4g#	You^
2cc#	Ge-
=19	=19
4g#	Chang\
[2b	Lo
=20	=20
2.b]	|
=21	=21
4g#	An\
2cc#	Shan\
=22	=22
4g#	You^
(4f#	Ge-
4d#)	|
=23	=23
4f#	Huan/
[2c#	Ie
=24	=24
2.c#]	|
*-	*-
